!!!OTL: DER WAECHTER AUF DEM THUERMLEIN SASS
!!!ARE: Europa, Mitteleuropa, Deutschland, Hessen, Darmstadt
!!!SCT: E0812
!!!YEM: Copyright 1995, estate of Helmut Schaffrath.
**kern
*ICvox
*Ivox
*M4/4
*k[f#]
*G:
{4d
=1
4g
4b
4a
4dd
=2
4b
8b
8a
4g}
{8g
8b
=3
4dd
4dd
4ee
4ee
=4
4dd
4cc
4b}
{8g
8b
=5
4dd
4dd
4dd
8ee
8dd
=6
4cc
8cc
8b
4cc}
{8dd
8cc
=7
4b
4b
4dd
8cc
8b
=8
4a
4a
4a}
{8g
8a
=9
4b
4b
8dd
8cc
8b
8cc
=10
2dd
8ee
8dd
8cc
8b
=11
2a
4g}
{8g
8b
=12
4dd
4dd
4dd
8ee
8dd
=13
4cc
8cc
8b
4cc}
{8dd
8cc
=14
4b
4b
4dd
8cc
8b
=15
4a
4a
4a}
{8g
8a
=16
4b
4b
8dd
8cc
8b
8cc
=17
2dd
8ee
8dd
8cc
8b
=18
2a
4g}
==
!!!AGN: Tage -, Kilt - Lied, Waechter - Lied
!!!ONB: ESAC (Essen Associative Code) Database: ERK2
!!!AMT: simple quadruple
!!!AIN: vox
!!!EED: Helmut Schaffrath
!!!EEV: 1.0
*-
